vendor/shopware/storefront/Resources/app/storefront/dist/assets/icon/default/variants.svg

<svg xmlns="http://www.w3.org/2000/svg" width="24" height="24" viewBox="0 0 24 24">
  <path fill="#758CA3" fill-rule="evenodd" d="M7.97192071,20.6223997 C7.62667068,20.1913303 7.69624105,19.561999 8.12731049,19.216749 C8.55837993,18.871499 9.1877112,18.9410693 9.53296124,19.3721388 C10.8543853,21.0220316 12.8458024,22 15,22 C18.8659932,22 22,18.8659932 22,15 C22,12.8458024 21.0220316,10.8543853 19.3721388,9.53296124 C18.9410693,9.1877112 18.871499,8.55837993 19.216749,8.12731049 C19.561999,7.69624105 20.1913303,7.62667068 20.6223997,7.97192071 C22.7412767,9.6689613 24,12.2320739 24,15 C24,19.9705627 19.9705627,24 15,24 C12.2320739,24 9.6689613,22.7412767 7.97192071,20.6223997 Z M9,18 C4.02943725,18 -8.8817842e-16,13.9705627 -8.8817842e-16,9 C-8.8817842e-16,4.02943725 4.02943725,0 9,0 C13.9705627,0 18,4.02943725 18,9 C18,13.9705627 13.9705627,18 9,18 Z M9,16 C12.8659932,16 16,12.8659932 16,9 C16,5.13400675 12.8659932,2 9,2 C5.13400675,2 2,5.13400675 2,9 C2,12.8659932 5.13400675,16 9,16 Z M8.10182834,13.8027059 C8.00812005,14.3469827 7.49093098,14.7122406 6.94665421,14.6185323 C6.40237744,14.524824 6.03711952,14.0076349 6.13082781,13.4633582 C6.77475738,9.72328455 9.72328455,6.77475738 13.4633582,6.13082781 C14.0076349,6.03711952 14.524824,6.40237744 14.6185323,6.94665421 C14.7122406,7.49093098 14.3469827,8.00812005 13.8027059,8.10182834 C10.8970694,8.60209264 8.60209264,10.8970694 8.10182834,13.8027059 Z"/>
</svg>

<svg xmlns="http://www.w3.org/2000/svg" width="24" height="24" viewBox="0 0 24 24"><path fill="#758CA3" fill-rule="evenodd" d="M7.972 20.6224c-.3453-.431-.2758-1.0604.1553-1.4057.431-.3452 1.0604-.2756 1.4057.1554C10.8544 21.0221 12.8458 22 15 22c3.866 0 7-3.134 7-7 0-2.1542-.978-4.1456-2.6279-5.467-.431-.3453-.5006-.9746-.1554-1.4057.3453-.431.9746-.5006 1.4057-.1554C22.7413 9.669 24 12.2321 24 15c0 4.9706-4.0294 9-9 9-2.768 0-5.331-1.2587-7.028-3.3776zM9 18c-4.9706 0-9-4.0294-9-9s4.0294-9 9-9 9 4.0294 9 9-4.0294 9-9 9zm0-2c3.866 0 7-3.134 7-7s-3.134-7-7-7-7 3.134-7 7 3.134 7 7 7zm-.8982-2.1973c-.0937.5443-.6109.9095-1.1551.8158-.5443-.0937-.9096-.6109-.8159-1.1551.644-3.7401 3.5925-6.6886 7.3326-7.3326.5442-.0937 1.0614.2716 1.1551.8159.0937.5442-.2715 1.0614-.8158 1.1551-2.9056.5003-5.2006 2.7953-5.7009 5.701z"/></svg>
